X: 03
T: SELLENGER'S ROUND
C: William Byrd
B: "FIFTY OLD ENGLISH FOLK DANCE AIRS", Edgar H. Hunt ed., Schott & Co. Ltd. pub., London 1939
Z: 2004-2014 John Chambers <jc:trillian.mit.edu>
M: 6/8
L: 1/8
K: G
[|\
G3 G>AB | c3 c>de | d2c B>AB | c6 |\
G3 G>AB | c3 c>de | d2c B>AB | c3- c2 ||
|: d |\
e3 e>dc | d3- d2d | B>cd d>cB | A3 d2B |\
c>dc B2G |A>Bc B2G | A2G ^F>EF |1 G3- G2 :|2 G6 |]

%%sep 1 1 500
%%sep 1 1 500
